static/img/xr/Button_Primary_24.svg

<svg fill="none" height="24" viewBox="0 0 43 24" width="43" xmlns="http://www.w3.org/2000/svg"><rect fill="#0063a3" height="24" rx="2" width="43"/><path d="m8.75 9.78906h1.6992c.737 0 1.293.10677 1.668.32034.375.2135.5625.582.5625 1.1054 0 .2188-.0391.4167-.1172.5938-.0755.1745-.1862.319-.332.4336-.1459.112-.3256.1875-.5391.2266v.039c.2214.0391.418.1081.5898.207.1745.099.3112.2409.4102.4258.1016.1849.1524.4245.1524.7188 0 .3489-.0834.6458-.25.8906-.1641.2448-.3998.431-.7071.5586-.3047.1276-.6666.1914-1.0859.1914h-2.0508zm.9375 2.35544h.8984c.4245 0 .7188-.069.8829-.207.164-.138.246-.3398.246-.6055 0-.2708-.0976-.4661-.2929-.5859-.1927-.1198-.5-.1797-.9219-.1797h-.8125zm0 .7578v1.8125h.9883c.4375 0 .7448-.0846.9219-.2539.177-.1692.2656-.3984.2656-.6875 0-.177-.0404-.3307-.1211-.4609-.0781-.1302-.207-.2305-.3867-.3008-.1797-.0729-.4219-.1094-.7266-.1094zm8.0117-1.7265v4.3242h-.7226l-.125-.582h-.0508c-.0912.1484-.207.2721-.3477.3711-.1406.0963-.2969.1679-.4687.2148-.1719.0495-.3529.0742-.543.0742-.3255 0-.6042-.0547-.8359-.164-.2292-.112-.405-.2839-.5274-.5157-.1224-.2317-.1836-.5312-.1836-.8984v-2.8242h.9219v2.6523c0 .336.0677.5873.2031.7539.1381.1667.3516.25.6407.25.2786 0 .5-.0573.664-.1718.1641-.1146.28-.2839.3477-.5079.0703-.2239.1054-.4987.1054-.8242v-2.1523zm2.9258 3.6601c.1198 0 .2383-.0104.3555-.0312.1172-.0235.2239-.0508.3203-.082v.6953c-.1016.0442-.2331.082-.3946.1132-.1614.0313-.3294.0469-.5039.0469-.2447 0-.4648-.0403-.6601-.1211-.1953-.0833-.3503-.2252-.4649-.4258-.1145-.2005-.1718-.4778-.1718-.832v-2.3242h-.5899v-.4102l.6328-.3242.3008-.9258h.5781v.961h1.2383v.6992h-1.2383v2.3125c0 .2187.0547.3815.1641.4883s.2539.1601.4336.1601zm3.1641 0c.1198 0 .2382-.0104.3554-.0312.1172-.0235.224-.0508.3203-.082v.6953c-.1015.0442-.233.082-.3945.1132-.1614.0313-.3294.0469-.5039.0469-.2448 0-.4648-.0403-.6602-.1211-.1953-.0833-.3502-.2252-.4648-.4258-.1146-.2005-.1719-.4778-.1719-.832v-2.3242h-.5898v-.4102l.6328-.3242.3008-.9258h.5781v.961h1.2383v.6992h-1.2383v2.3125c0 .2187.0547.3815.1641.4883.1093.1068.2539.1601.4336.1601zm5.3828-1.5078c0 .3594-.0469.6784-.1407.9571-.0937.2786-.2304.5143-.4101.707-.1797.1901-.3958.3359-.6484.4375-.2526.0989-.5378.1484-.8555.1484-.2969 0-.569-.0495-.8164-.1484-.2474-.1016-.4623-.2474-.6446-.4375-.1796-.1927-.319-.4284-.4179-.707-.099-.2787-.1485-.5977-.1485-.9571 0-.4765.0821-.8802.2461-1.2109.1667-.3333.4037-.5873.711-.7617.3073-.1745.6732-.2617 1.0976-.2617.3985 0 .75.0872 1.0547.2617.3047.1744.543.4284.7149.7617.1718.3333.2578.737.2578 1.2109zm-3.1367 0c0 .3151.0377.5847.1132.8086.0782.224.198.3959.3594.5156.1615.1172.3698.1758.625.1758s.4636-.0586.625-.1758c.1615-.1197.28-.2916.3555-.5156.0755-.2239.1133-.4935.1133-.8086s-.0378-.582-.1133-.8008c-.0755-.2213-.194-.3893-.3555-.5039-.1614-.1172-.3711-.1757-.6289-.1757-.3802 0-.6575.1276-.832.3828s-.2617.6211-.2617 1.0976zm6.4453-2.2343c.4869 0 .8659.1263 1.1367.3789.2734.25.4101.6523.4101 1.207v2.8203h-.9179v-2.6484c0-.336-.069-.5873-.2071-.7539-.138-.1693-.3515-.2539-.6406-.2539-.4193 0-.7109.1289-.875.3867-.1614.2578-.2422.6315-.2422 1.1211v2.1484h-.9179v-4.3242h.7148l.1289.5859h.0508c.0937-.151.2096-.2747.3477-.3711.1406-.0989.2968-.1732.4687-.2226.1745-.0495.3555-.0742.543-.0742z" fill="#f1f1f6"/></svg>

<svg width="43" height="24" viewBox="0 0 43 24" fill="none" xmlns="http://www.w3.org/2000/svg">
<rect width="43" height="24" rx="2" fill="#0063A3"/>
<path d="M8.75 9.78906H10.4492C11.1862 9.78906 11.7422 9.89583 12.1172 10.1094C12.4922 10.3229 12.6797 10.6914 12.6797 11.2148C12.6797 11.4336 12.6406 11.6315 12.5625 11.8086C12.487 11.9831 12.3763 12.1276 12.2305 12.2422C12.0846 12.3542 11.9049 12.4297 11.6914 12.4688V12.5078C11.9128 12.5469 12.1094 12.6159 12.2812 12.7148C12.4557 12.8138 12.5924 12.9557 12.6914 13.1406C12.793 13.3255 12.8438 13.5651 12.8438 13.8594C12.8438 14.2083 12.7604 14.5052 12.5938 14.75C12.4297 14.9948 12.194 15.181 11.8867 15.3086C11.582 15.4362 11.2201 15.5 10.8008 15.5H8.75V9.78906ZM9.6875 12.1445H10.5859C11.0104 12.1445 11.3047 12.0755 11.4688 11.9375C11.6328 11.7995 11.7148 11.5977 11.7148 11.332C11.7148 11.0612 11.6172 10.8659 11.4219 10.7461C11.2292 10.6263 10.9219 10.5664 10.5 10.5664H9.6875V12.1445ZM9.6875 12.9023V14.7148H10.6758C11.1133 14.7148 11.4206 14.6302 11.5977 14.4609C11.7747 14.2917 11.8633 14.0625 11.8633 13.7734C11.8633 13.5964 11.8229 13.4427 11.7422 13.3125C11.6641 13.1823 11.5352 13.082 11.3555 13.0117C11.1758 12.9388 10.9336 12.9023 10.6289 12.9023H9.6875ZM17.6992 11.1758V15.5H16.9766L16.8516 14.918H16.8008C16.7096 15.0664 16.5938 15.1901 16.4531 15.2891C16.3125 15.3854 16.1562 15.457 15.9844 15.5039C15.8125 15.5534 15.6315 15.5781 15.4414 15.5781C15.1159 15.5781 14.8372 15.5234 14.6055 15.4141C14.3763 15.3021 14.2005 15.1302 14.0781 14.8984C13.9557 14.6667 13.8945 14.3672 13.8945 14V11.1758H14.8164V13.8281C14.8164 14.1641 14.8841 14.4154 15.0195 14.582C15.1576 14.7487 15.3711 14.832 15.6602 14.832C15.9388 14.832 16.1602 14.7747 16.3242 14.6602C16.4883 14.5456 16.6042 14.3763 16.6719 14.1523C16.7422 13.9284 16.7773 13.6536 16.7773 13.3281V11.1758H17.6992ZM20.625 14.8359C20.7448 14.8359 20.8633 14.8255 20.9805 14.8047C21.0977 14.7812 21.2044 14.7539 21.3008 14.7227V15.418C21.1992 15.4622 21.0677 15.5 20.9062 15.5312C20.7448 15.5625 20.5768 15.5781 20.4023 15.5781C20.1576 15.5781 19.9375 15.5378 19.7422 15.457C19.5469 15.3737 19.3919 15.2318 19.2773 15.0312C19.1628 14.8307 19.1055 14.5534 19.1055 14.1992V11.875H18.5156V11.4648L19.1484 11.1406L19.4492 10.2148H20.0273V11.1758H21.2656V11.875H20.0273V14.1875C20.0273 14.4062 20.082 14.569 20.1914 14.6758C20.3008 14.7826 20.4453 14.8359 20.625 14.8359ZM23.7891 14.8359C23.9089 14.8359 24.0273 14.8255 24.1445 14.8047C24.2617 14.7812 24.3685 14.7539 24.4648 14.7227V15.418C24.3633 15.4622 24.2318 15.5 24.0703 15.5312C23.9089 15.5625 23.7409 15.5781 23.5664 15.5781C23.3216 15.5781 23.1016 15.5378 22.9062 15.457C22.7109 15.3737 22.556 15.2318 22.4414 15.0312C22.3268 14.8307 22.2695 14.5534 22.2695 14.1992V11.875H21.6797V11.4648L22.3125 11.1406L22.6133 10.2148H23.1914V11.1758H24.4297V11.875H23.1914V14.1875C23.1914 14.4062 23.2461 14.569 23.3555 14.6758C23.4648 14.7826 23.6094 14.8359 23.7891 14.8359ZM29.1719 13.3281C29.1719 13.6875 29.125 14.0065 29.0312 14.2852C28.9375 14.5638 28.8008 14.7995 28.6211 14.9922C28.4414 15.1823 28.2253 15.3281 27.9727 15.4297C27.7201 15.5286 27.4349 15.5781 27.1172 15.5781C26.8203 15.5781 26.5482 15.5286 26.3008 15.4297C26.0534 15.3281 25.8385 15.1823 25.6562 14.9922C25.4766 14.7995 25.3372 14.5638 25.2383 14.2852C25.1393 14.0065 25.0898 13.6875 25.0898 13.3281C25.0898 12.8516 25.1719 12.4479 25.3359 12.1172C25.5026 11.7839 25.7396 11.5299 26.0469 11.3555C26.3542 11.181 26.7201 11.0938 27.1445 11.0938C27.543 11.0938 27.8945 11.181 28.1992 11.3555C28.5039 11.5299 28.7422 11.7839 28.9141 12.1172C29.0859 12.4505 29.1719 12.8542 29.1719 13.3281ZM26.0352 13.3281C26.0352 13.6432 26.0729 13.9128 26.1484 14.1367C26.2266 14.3607 26.3464 14.5326 26.5078 14.6523C26.6693 14.7695 26.8776 14.8281 27.1328 14.8281C27.388 14.8281 27.5964 14.7695 27.7578 14.6523C27.9193 14.5326 28.0378 14.3607 28.1133 14.1367C28.1888 13.9128 28.2266 13.6432 28.2266 13.3281C28.2266 13.013 28.1888 12.7461 28.1133 12.5273C28.0378 12.306 27.9193 12.138 27.7578 12.0234C27.5964 11.9062 27.3867 11.8477 27.1289 11.8477C26.7487 11.8477 26.4714 11.9753 26.2969 12.2305C26.1224 12.4857 26.0352 12.8516 26.0352 13.3281ZM32.4805 11.0938C32.9674 11.0938 33.3464 11.2201 33.6172 11.4727C33.8906 11.7227 34.0273 12.125 34.0273 12.6797V15.5H33.1094V12.8516C33.1094 12.5156 33.0404 12.2643 32.9023 12.0977C32.7643 11.9284 32.5508 11.8438 32.2617 11.8438C31.8424 11.8438 31.5508 11.9727 31.3867 12.2305C31.2253 12.4883 31.1445 12.862 31.1445 13.3516V15.5H30.2266V11.1758H30.9414L31.0703 11.7617H31.1211C31.2148 11.6107 31.3307 11.487 31.4688 11.3906C31.6094 11.2917 31.7656 11.2174 31.9375 11.168C32.112 11.1185 32.293 11.0938 32.4805 11.0938Z" fill="#F1F1F6"/>
</svg>
